22x22/apps/navicat.svg

<svg xmlns="http://www.w3.org/2000/svg" width="22" height="22" version="1.1">
 <path style="opacity:0.2" d="M 16.271537,4.3573064 C 15.353659,6.1271759 14.336123,7.7289219 13.34262,9.3393399 L 10,14.5 19.649566,14.4982 C 20.318959,14.40456 20.689762,13.802585 20.79459,13.132715 21.532237,8.4515871 20.176842,6.0957759 18.422868,4.1731449 17.606408,3.2844098 16.887735,3.2073868 16.271747,4.3574327 Z"/>
 <path style="opacity:0.2" d="M 9.900433,1.500373 C 6.9228329,1.4710199 3.8957657,3.1784254 2.389551,5.19715 1.1529811,6.8551325 0.2064988,8.5276359 0,10.53827 H 0.00116 C 0.052728,11.680707 0.6238428,12.442487 1.9168957,12.5 H 10.999999 L 11.56005,8.2877184 C 11.769194,6.7110535 12.055325,5.1241195 11.990705,3.5217839 11.938715,2.2397388 10.830253,1.5280043 9.900479,1.5006219 Z"/>
 <path style="opacity:0.2" d="M 10.203896,8.5184448 C 8.2968359,8.4133331 6.1193339,8.7403475 4.6830034,9.9425819 3.247785,11.144001 2.2830059,12.713588 2.0439599,14.535251 1.7330303,17.593147 3.093647,19.408348 5.4236334,20.744225 10.592941,22.76764 15.678885,20.467967 18.489945,16.927688 19.455438,15.684923 18.856482,14.256986 18.280163,13.430709 16.542589,10.939505 14.314149,8.7450463 10.203712,8.5185015 Z"/>
 <path style="fill:#228c1f" d="M 9.900433,1.0003733 C 6.9228329,0.97102019 3.8957657,2.6784257 2.389551,4.6971503 1.1529811,6.3551328 0.2064988,8.0276362 0,10.03827 H 0.00116 C 0.052728,11.180707 0.6238428,11.942487 1.9168957,12 H 10.999999 L 11.56005,7.7877187 C 11.769194,6.2110538 12.055325,4.6241198 11.990705,3.0217842 11.938715,1.7397391 10.830253,1.0280046 9.900479,1.0006222 Z"/>
 <path style="opacity:0.1;fill:#f4f4f7" d="M 9.900391,0.99999989 C 6.9227905,0.97064679 3.8948866,2.6785409 2.3886719,4.6972655 1.152102,6.355248 0.2064988,8.0284287 0,10.039062 h 0.00195 c 0.00453,0.100408 0.016601,0.192803 0.029297,0.28711 C 0.2810349,8.4108042 1.1965329,6.7956754 2.3886719,5.1972655 3.8948866,3.1785409 6.9227905,1.4706468 9.900391,1.4999999 c 0.923254,0.02719 2.019661,0.730985 2.085937,1.9960938 6e-5,-0.1582409 0.0103,-0.316072 0.0039,-0.4746094 -0.05198,-1.2820451 -1.160063,-1.994102 -2.089837,-2.02148441 z"/>
 <path style="fill:#228c1f" d="M 16.271537,3.8573067 C 15.353659,5.6271762 14.336123,7.2289222 13.34262,8.8393397 L 10,14 19.649566,13.9982 C 20.318959,13.90456 20.689762,13.302585 20.79459,12.632715 21.532237,7.9515874 20.176842,5.5957762 18.422868,3.6731452 17.606408,2.7844101 16.887735,2.7073871 16.271747,3.857433 Z"/>
 <path style="opacity:0.1;fill:#f4f4f7" d="m 17.271484,2.9999999 c -0.358724,0.013408 -0.692006,0.2823989 -1,0.8574219 C 15.353606,5.6272913 14.3353,7.2294262 13.341797,8.8398437 L 10,14 h 0.324219 L 13.341797,9.3398439 C 14.3353,7.7294257 15.353606,6.1272913 16.271484,4.3574218 16.887472,3.2073759 17.607368,3.2850929 18.423828,4.173828 19.736629,5.6128639 20.824736,7.2939616 20.980469,10.011719 20.932098,7.0082259 19.812293,5.1958034 18.423828,3.673828 18.015598,3.2294605 17.630209,2.9865918 17.271484,2.9999999 Z"/>
 <path style="fill:#6ccc32" d="M 10.203896,8.0184451 C 8.2968359,7.9133334 6.1193339,8.2403478 4.6830034,9.4425819 3.247785,10.644001 2.2830059,12.213588 2.0439599,14.035251 1.7330303,17.093147 3.093647,18.908348 5.4236334,20.244225 10.592941,22.26764 15.678885,19.967967 18.489945,16.427688 19.455438,15.184923 18.856482,13.756986 18.280163,12.930709 16.542589,10.439505 14.314149,8.2450466 10.203712,8.0185018 Z"/>
 <path style="opacity:0.2;fill:#f4f4f7" d="M 10.203125,8.017578 C 8.2960649,7.9124663 6.1199243,8.2411252 4.6835938,9.4433589 3.2483754,10.644778 2.2839679,12.213493 2.0449219,14.035156 c -0.043887,0.431612 -0.048085,0.832554 -0.027344,1.216797 0.00336,-0.235029 0.00178,-0.465392 0.027344,-0.716797 0.239046,-1.821663 1.2034535,-3.390378 2.6386719,-4.5917971 1.4363305,-1.202234 3.6124711,-1.5308926 5.5195312,-1.4257809 4.110437,0.2265448 6.338598,2.422859 8.076172,4.914063 0.314873,0.451438 0.62771,1.083316 0.697265,1.765625 0.08364,-0.868624 -0.306315,-1.705115 -0.697265,-2.265625 -1.737574,-2.491204 -3.965735,-4.6875182 -8.076172,-4.914063 z"/>
</svg>

<svg xmlns="http://www.w3.org/2000/svg" width="22" height="22"><path style="opacity:.2" d="M16.272 4.357c-.918 1.77-1.936 3.372-2.93 4.982L10 14.5l9.65-.002c.669-.093 1.04-.695 1.145-1.365.737-4.681-.618-7.037-2.372-8.96-.817-.889-1.535-.966-2.151.184zM9.9 1.5c-2.977-.029-6.004 1.678-7.51 3.697C1.153 6.855.206 8.527 0 10.538h.001c.052 1.143.623 1.904 1.916 1.962H11l.56-4.212c.21-1.577.495-3.164.43-4.766C11.94 2.24 10.83 1.528 9.9 1.5z"/><path style="opacity:.2" d="M10.204 8.518c-1.907-.105-4.085.222-5.521 1.425-1.435 1.201-2.4 2.77-2.639 4.592-.311 3.058 1.05 4.873 3.38 6.21 5.169 2.023 10.255-.277 13.066-3.817.965-1.243.366-2.671-.21-3.497-1.737-2.491-3.966-4.686-8.076-4.912z"/><path style="fill:#228c1f" d="M9.9 1C6.923.971 3.896 2.678 2.39 4.697 1.153 6.355.206 8.027 0 10.038h.001C.053 11.181.624 11.942 1.917 12H11l.56-4.212c.21-1.577.495-3.164.43-4.766C11.94 1.74 10.83 1.028 9.9 1z"/><path style="opacity:.1;fill:#f4f4f7" d="M9.9 1C6.923.97 3.895 2.679 2.39 4.697 1.152 6.355.206 8.028 0 10.04h.002c.004.1.017.193.03.287.249-1.915 1.165-3.53 2.357-5.129C3.895 3.18 6.923 1.471 9.9 1.5c.924.027 2.02.731 2.086 1.996 0-.158.01-.316.004-.475C11.938 1.74 10.83 1.027 9.9 1z"/><path style="fill:#228c1f" d="M16.272 3.857c-.918 1.77-1.936 3.372-2.93 4.982L10 14l9.65-.002c.669-.093 1.04-.695 1.145-1.365.737-4.681-.618-7.037-2.372-8.96-.817-.889-1.535-.966-2.151.184z"/><path style="opacity:.1;fill:#f4f4f7" d="M17.271 3c-.358.013-.692.282-1 .857-.917 1.77-1.936 3.372-2.93 4.983L10 14h.324l3.018-4.66c.993-1.61 2.012-3.213 2.93-4.983.615-1.15 1.335-1.072 2.152-.183 1.313 1.439 2.4 3.12 2.556 5.838-.048-3.004-1.168-4.816-2.556-6.338-.408-.445-.794-.687-1.153-.674z"/><path style="fill:#6ccc32" d="M10.204 8.018c-1.907-.105-4.085.222-5.521 1.425-1.435 1.201-2.4 2.77-2.639 4.592-.311 3.058 1.05 4.873 3.38 6.21 5.169 2.023 10.255-.277 13.066-3.817.965-1.243.366-2.671-.21-3.497-1.737-2.491-3.966-4.686-8.076-4.912z"/><path style="opacity:.2;fill:#f4f4f7" d="M10.203 8.018c-1.907-.106-4.083.223-5.52 1.425-1.435 1.202-2.399 2.77-2.638 4.592a7.775 7.775 0 0 0-.027 1.217c.003-.235.001-.465.027-.717.239-1.822 1.203-3.39 2.639-4.592 1.436-1.202 3.612-1.53 5.52-1.425 4.11.226 6.338 2.422 8.075 4.914.315.451.628 1.083.698 1.765.083-.868-.307-1.705-.698-2.265-1.737-2.492-3.965-4.688-8.076-4.914z"/></svg>
